resources/haticons/SVG/tongue.svg

<!-- Generated by IcoMoon.io -->
<svg version="1.1" xmlns="http://www.w3.org/2000/svg" width="24" height="24" viewBox="0 0 24 24">
<title>tongue</title>
<path d="M12 24c6.627 0 12-5.373 12-12s-5.373-12-12-12-12 5.373-12 12 5.373 12 12 12zM12 2.25c5.385 0 9.75 4.365 9.75 9.75s-4.365 9.75-9.75 9.75-9.75-4.365-9.75-9.75 4.365-9.75 9.75-9.75zM6 7.5c0-0.828 0.672-1.5 1.5-1.5s1.5 0.672 1.5 1.5c0 0.828-0.672 1.5-1.5 1.5s-1.5-0.672-1.5-1.5zM15 7.5c0-0.828 0.672-1.5 1.5-1.5s1.5 0.672 1.5 1.5c0 0.828-0.672 1.5-1.5 1.5s-1.5-0.672-1.5-1.5zM18 13.5v1.5h-1.5v2.25c0 1.243-1.007 2.25-2.25 2.25s-2.25-1.007-2.25-2.25v-2.25h-6v-1.5h12z"></path>
</svg>

<svg xmlns="http://www.w3.org/2000/svg" width="24" height="24"><path d="M12 24c6.627 0 12-5.373 12-12S18.627 0 12 0 0 5.373 0 12s5.373 12 12 12zm0-21.75c5.385 0 9.75 4.365 9.75 9.75s-4.365 9.75-9.75 9.75S2.25 17.385 2.25 12 6.615 2.25 12 2.25zM6 7.5a1.5 1.5 0 1 1 3.001.001A1.5 1.5 0 0 1 6 7.5zm9 0a1.5 1.5 0 1 1 3.001.001A1.5 1.5 0 0 1 15 7.5zm3 6V15h-1.5v2.25a2.25 2.25 0 1 1-4.5 0V15H6v-1.5h12z"/></svg>
